X:1
T:Octopus Song
T:Bee and Puppycat: Octopus Song
%%score 1 2 3
L:1/8
Q:3/8=50
M:4/4
K:C
V:1 treble nm="Violin" snm="Vln."
V:2 bass nm="Violoncello" snm="Vc."
V:3 bass nm="Violoncello" snm="Vc."
V:1
 z4 z2 (3z G,G, | (3:2:2C2 A, (3:2:2C2 A, (3:2:2C2 A, (3DDD | E6 (3z z A, | %3
 (3:2:2C2 A, (3:2:2C2 A, (3:2:2C2 C (3:2:2D2 C | C8 | (3CCA, (3:2:2C2 A, (3CCA, (3DDD | %6
 E6 (3z G,G, | (3CCA, (3:2:2C2 C (3:2:2C2 C (3:2:2D2 C | C6 (3EEE | (3:2:2E2 D- D4 (3EG,G, | %10
 C4 B,4- | B,6 (3EEE | (3:2:2E2 D- D4 (3EG,G, | C2- (3:2:2C2 B, B,4- | B,6 (3z G,G, | %15
 (3:2:2C2 A, (3:2:2C2 A, (3:2:2C2 A, (3:2:2D2 D | E6 (3z G,G, | %17
 (3:2:2C2 A, (3:2:2C2 A, (3:2:2C2 C (3:2:2D2 C | C6 (3z G,G, | (3:2:2C2 A, (3:2:2C2 A, C2 (3DDD | %20
 E6 G,2 | (3:2:2C2 A, (3:2:2C2 C (3:2:2C2 C (3:2:2D2 C | C6 (3EEE | (3:2:2E2 D- D4 (3EG,G, | %24
 C4 B,4- | B,6 (3EEE | (3:2:2E2 D- D4 (3EG,G, | C4 B,4- | B,8 |!p! [A,F]2 [A,F]2 [A,F]2 [A,F]2 | %30
 [CE]2 [CE]2 [CE]2 [CE]2 | [B,D]2 [B,D]2 [B,D]2 [B,D]2 | [A,F]2 [A,F]2 [CE]2 [CE]2 |[M:2/4] [CE]4 | %34
[M:4/4]!p! [A,F]2 [A,F]2 [A,F]2 [A,F]2 | [CE]2 [CE]2 [CE]2 [CE]2 | [B,D]2 [B,D]2 [B,D]2 [B,D]2 | %37
 [CF]4 G,4- | G,8 |] %39
V:2
 (3C,,E,,G,, [G,,E,]2 (3G,,B,,D, [D,,B,,]2 | (3C,,G,,F,, [C,,G,,]2 (3B,,D,G,, [D,,B,,]2 | %2
 (3C,E,G,, (3C,,E,,G,, [G,,D,]2 [C,G,]2 | (3C,,G,,E,, [C,,G,,]2 (3B,,D,G,, [D,,B,,]2 | %4
 (3C,E,G,, (3C,,E,,G,, [G,,D,]2 [C,,G,,]2 | (3C,,G,,F,, [C,,G,,]2 (3B,,D,G,, [D,,B,,]2 | %6
 (3C,E,G,, (3C,,E,,G,, [G,,D,]2 [C,G,]2 | (3C,,G,,E,, [C,,G,,]2 (3B,,D,G,, [D,,B,,]2 | %8
 (3C,E,G,, (3C,,E,,G,, [G,,D,]2 [E,,C,]2 | z2 [B,,D,]2 [G,,D,]2 [G,,C,]2 | [A,,E,]4 [D,,D,]4- | %11
 [D,,D,]6 z2 | z2 [B,,D,]2 [G,,D,]2 [G,,C,]2 | [A,,E,]4 [D,,D,]4- | [D,,D,]8 | %15
 (3C,,G,,F,, [C,,G,,]2 (3B,,D,G,, [D,,B,,]2 | (3C,E,G,, (3C,,E,,G,, [G,,D,]2 [C,G,]2 | %17
 (3C,,G,,E,, [C,,G,,]2 (3B,,D,G,, [D,,B,,]2 | (3C,E,G,, (3C,,E,,G,, [G,,D,]2 [C,,G,,]2 | %19
 (3C,,G,,F,, [C,,G,,]2 (3B,,D,G,, [D,,B,,]2 | (3C,E,G,, (3C,,E,,G,, [G,,D,]2 [C,G,]2 | %21
 (3C,,G,,E,, [C,,G,,]2 (3B,,D,G,, [D,,B,,]2 | (3C,E,G,, (3C,,E,,G,, [G,,D,]2 [E,,C,]2 | %23
 z2 [B,,D,]2 [G,,D,]2 [G,,C,]2 | [A,,E,]4 [D,,D,]4- | [D,,D,]6 z2 | z2 [B,,D,]2 [G,,D,]2 [G,,C,]2 | %27
 [A,,E,]4 [D,,D,]4- | [D,,D,]8 | z2 (3E,E,E, E,2 (3z E,C, | (3D,C,G,,- G,,2- G,,2 (3C,C,E, | %31
 B,,2 (3z B,,B,, B,,2 (3z B,,G,, | (3A,,G,,F,,- (3:2:2F,,2 A,, C,4 |[M:2/4] z4 | %34
[M:4/4]!p! [F,,C,]2 [F,,C,]2 [F,,C,]2 [F,,C,]2 | [A,,E,]2 [A,,E,]2 [A,,E,]2 [A,,E,]2 | %36
 [D,,G,,]2 [D,,G,,]2 [D,,G,,]2 [D,,G,,]2 | [A,,F,]4 E,4- | E,8 |] %39
V:3
 (3G,,E,,C,, [C,,C,]2 (3D,B,,G,, [G,,G,]2 | (3C,F,,G,, [E,,C,]2 (3D,B,,G,, [G,,D,]2 | %2
 (3C,,C,E,, (3E,,C,,E,, [D,,B,,]2 [G,,E,]2 | (3E,,C,,E,, [E,,C,]2 (3G,,D,,B,, [G,,D,]2 | %4
 (3C,,C,E,, (3E,,C,,E,, [D,,B,,]2 [E,,C,]2 | (3C,F,,G,, [E,,C,]2 (3D,B,,G,, [G,,D,]2 | %6
 (3C,,C,E,, (3E,,C,,E,, [D,,B,,]2 [G,,E,]2 | (3E,,C,,E,, [E,,C,]2 (3G,,D,,B,, [G,,D,]2 | %8
 (3C,,C,E,, (3E,,C,,E,, [D,,B,,]2 [C,,G,,]2 | z2 [D,,G,,]2 [D,,B,,]2 [E,G,]2 | %10
 [C,,E,,]4 [G,,B,,]4- | [G,,B,,]6 z2 | z2 [D,,G,,]2 [D,,B,,]2 [C,,E,,]2 | [C,,E,,]4 [G,,B,,]4- | %14
 [G,,B,,]8 | (3C,F,,G,, [E,,C,]2 (3D,B,,G,, [G,,D,]2 | (3C,,C,E,, (3E,,C,,E,, [D,,B,,]2 [G,,E,]2 | %17
 (3E,,C,,E,, [E,,C,]2 (3G,,D,,B,, [G,,D,]2 | (3C,,C,E,, (3E,,C,,E,, [D,,B,,]2 [E,,C,]2 | %19
 (3C,F,,G,, [E,,C,]2 (3D,B,,G,, [G,,D,]2 | (3C,,C,E,, (3E,,C,,E,, [D,,B,,]2 [G,,E,]2 | %21
 (3E,,C,,E,, [E,,C,]2 (3G,,D,,B,, [G,,D,]2 | (3C,,C,E,, (3E,,C,,E,, [D,,B,,]2 [C,,G,,]2 | %23
 z2 [D,,G,,]2 [D,,B,,]2 [E,G,]2 | [C,,E,,]4 [G,,B,,]4- | [G,,B,,]6 z2 | %26
 z2 [D,,G,,]2 [D,,B,,]2 [C,,E,,]2 | [C,,E,,]4 [G,,B,,]4- | [G,,B,,]8 | %29
!p! [F,,C,]2 [F,,C,]2 [F,,C,]2 [F,,C,]2 | [A,,E,]2 [A,,E,]2 [A,,E,]2 [A,,E,]2 | %31
 [D,,G,,]2 [D,,G,,]2 [D,,G,,]2 [D,,G,,]2 | [C,,F,,]2 [C,,F,,]2 [C,,G,,]2 [C,,G,,]2 | %33
[M:2/4] [C,,G,,]4 |[M:4/4]!mf! z2 (3E,E,E, E,2 (3z E,C, | (3D,C,G,,- G,,2- G,,2 (3z C,E, | %36
 B,,2 (3z B,,B,, B,,2 (3z B,,G,, | (3A,,G,,F,, (3:2:2F,,2 A,, C,4- | C,8 |] %39

